symbolic/22x22/actions/view-bank-account-savings.svg

<svg xmlns="http://www.w3.org/2000/svg" width="22" height="22"><defs><style id="current-color-scheme" type="text/css"></style></defs><path style="fill:currentColor;color:#323a41" d="M14 11v2h-1l1.5 3 1.5-3h-1v-2zM7 1 0 8h2v7h10V8h2zm0 5a2 2 0 0 1 2 2 2 2 0 0 1-2 2c3 0 3 2.5 3 2.5v.5H4v-.5S4 10 7 10a2 2 0 0 1-2-2 2 2 0 0 1 2-2z" transform="translate(3 3)"/></svg>

<svg xmlns="http://www.w3.org/2000/svg" width="22" height="22" version="1.1">
 <defs>
  <style id="current-color-scheme" type="text/css">
   .ColorScheme-Text { color:#323a41; } .ColorScheme-Highlight { color:#4285f4; } .ColorScheme-NeutralText { color:#ff9800; } .ColorScheme-PositiveText { color:#4caf50; } .ColorScheme-NegativeText { color:#f44336; }
  </style>
 </defs>
 <g transform="translate(3,3)">
  <path style="fill:currentColor" class="ColorScheme-Text" d="M 14,11 V 13 H 13 L 14.5,16 16,13 H 15 V 11 Z M 7,1 0,8 H 2 V 15 H 12 V 8 H 14 Z M 7,6 A 2,2 0 0 1 9,8 2,2 0 0 1 7,10 C 10,10 10,12.5 10,12.5 V 13 H 4 V 12.5 C 4,12.5 4,10 7,10 A 2,2 0 0 1 5,8 2,2 0 0 1 7,6 Z"/>
 </g>
</svg>
